icons/solid/hashtag.svg

<svg width="24" height="24" viewBox="0 0 24 24" fill="none" xmlns="http://www.w3.org/2000/svg">
<path fill-rule="evenodd" clip-rule="evenodd" d="M5 1C2.79086 1 1 2.79086 1 5V19C1 21.2091 2.79086 23 5 23H19C21.2091 23 23 21.2091 23 19V5C23 2.79086 21.2091 1 19 1H5ZM12.3162 5.05131C12.8402 5.22596 13.1233 5.79228 12.9487 6.31622L12.0541 9H13.9459L15.0513 5.68377C15.226 5.15983 15.7923 4.87667 16.3162 5.05131C16.8402 5.22596 17.1233 5.79228 16.9487 6.31622L16.0541 9H19C19.5523 9 20 9.44772 20 10C20 10.5523 19.5523 11 19 11H15.3874L14.7208 13H17C17.5523 13 18 13.4477 18 14C18 14.5523 17.5523 15 17 15H14.0541L12.9487 18.3162C12.774 18.8402 12.2077 19.1233 11.6838 18.9487C11.1598 18.774 10.8767 18.2077 11.0513 17.6838L11.9459 15H10.0541L8.94868 18.3162C8.77404 18.8402 8.20772 19.1233 7.68377 18.9487C7.15983 18.774 6.87667 18.2077 7.05132 17.6838L7.94591 15H5C4.44772 15 4 14.5523 4 14C4 13.4477 4.44772 13 5 13H8.61257L9.27924 11H7C6.44772 11 6 10.5523 6 10C6 9.44771 6.44772 9 7 9H9.94591L11.0513 5.68377C11.226 5.15983 11.7923 4.87667 12.3162 5.05131ZM10.7208 13L11.3874 11H13.2792L12.6126 13H10.7208Z" fill="currentColor"/>
</svg>

<svg width="24" height="24" fill="none" xmlns="http://www.w3.org/2000/svg"><path fill-rule="evenodd" clip-rule="evenodd" d="M5 1a4 4 0 00-4 4v14a4 4 0 004 4h14a4 4 0 004-4V5a4 4 0 00-4-4H5zm7.316 4.051a1 1 0 01.633 1.265L12.054 9h1.892l1.105-3.316a1 1 0 011.898.632L16.054 9H19a1 1 0 110 2h-3.613l-.666 2H17a1 1 0 110 2h-2.946l-1.105 3.316a1 1 0 01-1.898-.632L11.946 15h-1.892L8.95 18.316a1 1 0 11-1.898-.632L7.946 15H5a1 1 0 110-2h3.613l.666-2H7a1 1 0 110-2h2.946l1.105-3.316a1 1 0 011.265-.633zM10.721 13l.666-2h1.892l-.666 2H10.72z" fill="currentColor"/></svg>
